X: 9074
T: Da Houmin
R: reel
M: 4/4
K: Adorian
A2AG E2DE|G2A2 BAG2|A2AG E2D2|E2G2 A4:|
ABcd e2c2|d2dc B2G2|ABcd e2f2|g2a2 e4|
a2ag e2c2|d2dc B2G2|ABcd e2d2|c2B2 A4||

